vector-radius.svg

<svg fill="currentColor" viewBox="0 0 24 24"><path d="M2 4h2V2h6v2a10 10 0 0 1 10 10h2v6h-2v2h-2v-2h-2v-6h2a8 8 0 0 0-8-8v2H4V6H2zm16 12v2h2v-2zM6 4v2h2V4z"/></svg>

<svg  viewBox="0 0 24 24" fill="currentColor"><path  d="M2,4H4V2H10V4A10,10 0 0,1 20,14H22V20H20V22H18V20H16V14H18A8,8 0 0,0 10,6V8H4V6H2V4M18,16V18H20V16H18M6,4V6H8V4H6Z"/></svg>
